X:855
T:Reel 855
M:4/4
K:Dmix
L:1/8
cB|A<D (3DDD FGED|ECCD ECcE|A>D (3DDD cGEG|FEDC D2:|de|f>d (3dcd f>d (3dcd |e>c (3ccc ecgc|f>d (3dcd edcA| (3ABc GE D2:|
